common/src/main/resources/icons/codeWithMe/cwmFollowMe.svg

<svg xmlns="http://www.w3.org/2000/svg" width="16" height="16" data-big="true" viewBox="0 0 24 24"><path fill="#F06292" d="M15 14c-2.7 0-8 1.3-8 4v2h16v-2c0-2.7-5.3-4-8-4m0-2a4 4 0 0 0 4-4 4 4 0 0 0-4-4 4 4 0 0 0-4 4 4 4 0 0 0 4 4M5 15l-.6-.5C2.4 12.6 1 11.4 1 9.9c0-1.2 1-2.2 2.2-2.2.7 0 1.4.3 1.8.8.4-.5 1.1-.8 1.8-.8C8 7.7 9 8.6 9 9.9c0 1.5-1.4 2.7-3.4 4.6z"/></svg>

<!--
  - The MIT License (MIT)
  -
  - Copyright (c) 2015-2024 Elior "Mallowigi" Boukhobza
  -
  - Permission is hereby granted, free of charge, to any person obtaining a copy
  - of this software and associated documentation files (the "Software"), to deal
  - in the Software without restriction, including without limitation the rights
  - to use, copy, modify, merge, publish, distribute, sublicense, and/or sell
  - copies of the Software, and to permit persons to whom the Software is
  - furnished to do so, subject to the following conditions:
  -
  - The above copyright notice and this permission notice shall be included in all
  - copies or substantial portions of the Software.
  -
  - THE SOFTWARE IS PROVIDED "AS IS", WITHOUT WARRANTY OF ANY KIND, EXPRESS OR
  - IMPLIED, INCLUDING BUT NOT LIMITED TO THE WARRANTIES OF MERCHANTABILITY,
  - FITNESS FOR A PARTICULAR PURPOSE AND NONINFRINGEMENT. IN NO EVENT SHALL THE
  - AUTHORS OR COPYRIGHT HOLDERS BE LIABLE FOR ANY CLAIM, DAMAGES OR OTHER
  - LIABILITY, WHETHER IN AN ACTION OF CONTRACT, TORT OR OTHERWISE, ARISING FROM,
  - OUT OF OR IN CONNECTION WITH THE SOFTWARE OR THE USE OR OTHER DEALINGS IN THE
  - SOFTWARE.
  -->


<svg data-big="true" xmlns="http://www.w3.org/2000/svg" version="1.1" width="16px" height="16px" viewBox="0 0 24 24">
  <path fill="#F06292"
        d="M15,14C12.3,14 7,15.3 7,18V20H23V18C23,15.3 17.7,14 15,14M15,12A4,4 0 0,0 19,8A4,4 0 0,0 15,4A4,4 0 0,0 11,8A4,4 0 0,0 15,12M5,15L4.4,14.5C2.4,12.6 1,11.4 1,9.9C1,8.7 2,7.7 3.2,7.7C3.9,7.7 4.6,8 5,8.5C5.4,8 6.1,7.7 6.8,7.7C8,7.7 9,8.6 9,9.9C9,11.4 7.6,12.6 5.6,14.5L5,15Z"/>
</svg>
